docs/img/icons/right-arrow.svg

<svg width="12" height="13" viewBox="0 0 12 13" fill="none" xmlns="http://www.w3.org/2000/svg">
<g clip-path="url(#clip0_9:124)">
<path d="M9.33358 6.03176L3.99343 0.691706C3.86992 0.568097 3.70504 0.5 3.52924 0.5C3.35343 0.5 3.18856 0.568097 3.06504 0.691706L2.67178 1.08487C2.41588 1.34107 2.41588 1.75745 2.67178 2.01326L7.15604 6.49751L2.6668 10.9867C2.54329 11.1104 2.4751 11.2751 2.4751 11.4508C2.4751 11.6267 2.54329 11.7915 2.6668 11.9152L3.06007 12.3083C3.18368 12.4319 3.34846 12.5 3.52426 12.5C3.70006 12.5 3.86494 12.4319 3.98845 12.3083L9.33358 6.96336C9.45738 6.83936 9.52538 6.6738 9.52499 6.49781C9.52538 6.32112 9.45738 6.15566 9.33358 6.03176Z" fill="white"/>
</g>
<defs>
<clipPath id="clip0_9:124">
<rect width="12" height="12" fill="white" transform="translate(0 0.5)"/>
</clipPath>
</defs>
</svg>

<svg width="12" height="13" fill="none" xmlns="http://www.w3.org/2000/svg"><g clip-path="url(#clip0_9:124)"><path d="M9.334 6.032L3.994.692A.652.652 0 003.528.5a.652.652 0 00-.464.192l-.393.393a.657.657 0 000 .928l4.484 4.485-4.49 4.489a.652.652 0 00-.19.464c0 .176.067.34.19.464l.394.393a.652.652 0 00.464.192.65.65 0 00.464-.192l5.346-5.345a.653.653 0 00.191-.465.652.652 0 00-.191-.466z" fill="#fff"/></g><defs><clipPath id="clip0_9:124"><path fill="#fff" transform="translate(0 .5)" d="M0 0h12v12H0z"/></clipPath></defs></svg>
